svg/file/folder_zip_line.svg

<svg xmlns="http://www.w3.org/2000/svg" width="24" height="24" viewBox="0 0 24 24"><g fill="none" fill-rule="evenodd"><path d="M24,0 L24,24 L0,24 L0,0 L24,0 Z M12.5935,23.2578 L12.5819,23.2595 L12.5109,23.295 L12.4919,23.2987 L12.4767,23.295 L12.4057,23.2595 C12.3958,23.2564 12.387,23.259 12.3821,23.2649 L12.378,23.2758 L12.3609,23.7031 L12.3659,23.7235 L12.3769,23.7357 L12.4805,23.8097 L12.4953,23.8136 L12.5071,23.8097 L12.6107,23.7357 L12.6233,23.7197 L12.6267,23.7031 L12.6096,23.2758 C12.6076,23.2657 12.601,23.2593 12.5935,23.2578 Z M12.8584,23.1453 L12.8445,23.1473 L12.6598,23.2397 L12.6499,23.2499 L12.6472,23.2611 L12.6651,23.6906 L12.6699,23.7034 L12.6784,23.7105 L12.8793,23.8032 C12.8914,23.8069 12.9022,23.803 12.9078,23.7952 L12.9118,23.7812 L12.8777,23.1665 C12.8753,23.1546 12.8674,23.147 12.8584,23.1453 Z M12.143,23.1473 C12.1332,23.1424 12.1222,23.1453 12.1156,23.1526 L12.1099,23.1665 L12.0758,23.7812 C12.0751,23.7927 12.0828,23.8019 12.0926,23.8046 L12.1083,23.8032 L12.3092,23.7105 L12.3186,23.7024 L12.3225,23.6906 L12.3404,23.2611 L12.3372,23.2485 L12.3278,23.2397 L12.143,23.1473 Z"/><path fill="#09244B" d="M2,5 C2,3.89543 2.89543,3 4,3 L9.51938,3 C10.1269,3 10.7016,3.27618 11.0811,3.75061 L12.4806,5.5 L20,5.5 C21.1046,5.5 22,6.39543 22,7.5 L22,19 C22,20.1046 21.1046,21 20,21 L4,21 C2.89543,21 2,20.1046 2,19 L2,5 Z M9.51938,5 L4,5 L4,19 L20,19 L20,7.5 L12.4806,7.5 C11.8731,7.5 11.2984,7.22382 10.9189,6.74939 L9.51938,5 Z M12,9 C12,8.44772 12.4477,8 13,8 L14,8 C14.5523,8 15,8.44772 15,9 C15,9.55228 14.5523,10 14,10 L13,10 C12.4477,10 12,9.55228 12,9 Z M15,11 C15,10.4477 15.4477,10 16,10 L17,10 C17.5523,10 18,10.4477 18,11 C18,11.5523 17.5523,12 17,12 L16,12 C15.4477,12 15,11.5523 15,11 Z M14,14 L13,14 C12.4477,14 12,13.5523 12,13 C12,12.4477 12.4477,12 13,12 L14,12 C14.5523,12 15,12.4477 15,13 C15,13.5523 14.5523,14 14,14 Z M15,15 C15,14.4477 15.4477,14 16,14 L17,14 C17.5523,14 18,14.4477 18,15 C18,15.5523 17.5523,16 17,16 L16,16 C15.4477,16 15,15.5523 15,15 Z M14,18 L13,18 C12.4477,18 12,17.5523 12,17 C12,16.4477 12.4477,16 13,16 L14,16 C14.5523,16 15,16.4477 15,17 C15,17.5523 14.5523,18 14,18 Z"/></g></svg>

<svg xmlns="http://www.w3.org/2000/svg" width="24" height="24"><g fill="none" fill-rule="evenodd"><path d="M24 0v24H0V0zM12.594 23.258l-.012.002-.071.035-.02.004-.014-.004-.071-.036c-.01-.003-.019 0-.024.006l-.004.01-.017.428.005.02.01.013.104.074.015.004.012-.004.104-.074.012-.016.004-.017-.017-.427c-.002-.01-.009-.017-.016-.018m.264-.113-.014.002-.184.093-.01.01-.003.011.018.43.005.012.008.008.201.092c.012.004.023 0 .029-.008l.004-.014-.034-.614c-.003-.012-.01-.02-.02-.022m-.715.002a.023.023 0 0 0-.027.006l-.006.014-.034.614c0 .012.007.02.017.024l.015-.002.201-.093.01-.008.003-.011.018-.43-.003-.012-.01-.01z"/><path fill="#09244B" d="M2 5a2 2 0 0 1 2-2h5.52a2 2 0 0 1 1.561.75l1.4 1.75H20a2 2 0 0 1 2 2V19a2 2 0 0 1-2 2H4a2 2 0 0 1-2-2zm7.52 0H4v14h16V7.5h-7.52a2 2 0 0 1-1.561-.75zM12 9a1 1 0 0 1 1-1h1a1 1 0 1 1 0 2h-1a1 1 0 0 1-1-1m3 2a1 1 0 0 1 1-1h1a1 1 0 1 1 0 2h-1a1 1 0 0 1-1-1m-1 3h-1a1 1 0 1 1 0-2h1a1 1 0 1 1 0 2m1 1a1 1 0 0 1 1-1h1a1 1 0 1 1 0 2h-1a1 1 0 0 1-1-1m-1 3h-1a1 1 0 1 1 0-2h1a1 1 0 1 1 0 2"/></g></svg>
